svgs/light/scarecrow.svg

<svg xmlns="http://www.w3.org/2000/svg" viewBox="0 0 448 512"><!-- Font Awesome Pro 6.0.0-alpha2 by @fontawesome - https://fontawesome.com License - https://fontawesome.com/license (Commercial License) --><path d="M256.009 120C264.759 120 272.009 112.75 272.009 104S264.759 88 256.009 88S240.008 95.25 240.008 104S247.258 120 256.009 120ZM192.007 104C200.757 104 208.007 96.75 208.007 88S200.757 72 192.007 72S176.006 79.25 176.006 88S183.256 104 192.007 104ZM445.765 186.25L419.264 160L437.64 141.75C442.64 136.75 439.14 128 431.89 128H320.011V96C320.011 43 277.01 0 224.008 0S128.004 43 128.004 96V128H16.001C8.875 128 5.25 136.625 10.25 141.75L28.751 160L2.25 186.25C-0.75 189.375 -0.75 194.5 2.25 197.625L28.751 224L10.375 242.25C5.375 247.25 8.875 256 16.126 256H122.254L96.253 397.25C94.128 410 107.254 420.25 119.129 414.25L151.755 390C158.168 385.258 188.651 399.961 208.007 409.193V496C208.007 504.844 215.164 512 224.008 512S240.008 504.844 240.008 496V409.18C259.319 399.945 289.69 385.26 296.01 390L328.761 414.25C340.637 420.25 353.762 409.875 351.637 397.25L325.886 256H432.015C439.14 256 442.765 247.375 437.765 242.25L419.264 224L445.64 197.75C448.765 194.5 448.765 189.5 445.765 186.25ZM160.005 96C160.005 60.75 188.756 32 224.008 32S288.01 60.75 288.01 96V128C288.01 145.625 273.634 160 256.009 160H192.007C174.381 160 160.005 145.625 160.005 128V96ZM374.138 224H287.51L312.886 362.75C305.135 357.625 296.01 354.875 286.635 354.875C278.76 354.875 270.884 356.875 264.009 360.5L224.008 381.75L184.006 360.5C177.006 356.75 169.256 354.875 161.381 354.875C152.005 354.875 142.88 357.625 135.13 362.75L160.506 224H73.878L41.876 192L73.878 160H136.755C147.88 179 168.256 192 191.882 192H255.884C279.51 192 299.885 179 311.011 160H374.013L406.014 192L374.138 224Z"/></svg>

<svg xmlns="http://www.w3.org/2000/svg" viewBox="0 0 448 512"><!-- Font Awesome Pro 5.15.1 by @fontawesome - https://fontawesome.com License - https://fontawesome.com/license (Commercial License) --><path d="M256 120c8.8 0 16-7.2 16-16s-7.2-16-16-16-16 7.2-16 16 7.2 16 16 16zm-64-16c8.8 0 16-7.2 16-16s-7.2-16-16-16-16 7.2-16 16 7.2 16 16 16zm253.7 82.3L419.3 160l18.3-18.3c5-5 1.5-13.7-5.7-13.7H320V96c0-53-43-96-96-96s-96 43-96 96v32H16c-7.1 0-10.7 8.6-5.7 13.7L28.7 160 2.3 186.3c-3.1 3.1-3.1 8.2 0 11.3L28.7 224l-18.3 18.3c-5 5-1.5 13.7 5.7 13.7h106.1l-26 141.3c-2.1 12.7 11.1 22.9 22.9 16.9l32.7-24.2c9.1-6.8 17-1.3 24.1 2.5V496c0 8.8 7.2 16 16 16h64c8.8 0 16-7.2 16-16V392.5c7.6-4 15.1-9.2 24.1-2.5l32.7 24.2c11.9 6 25-4.3 22.9-16.9L325.9 256H432c7.1 0 10.7-8.6 5.7-13.7L419.3 224l26.3-26.3c3.2-3.2 3.2-8.2.1-11.4zM160 96c0-35.3 28.7-64 64-64s64 28.7 64 64v32c0 17.6-14.4 32-32 32h-64c-17.6 0-32-14.4-32-32zm80 384h-32v-70.4c9.2 4.9 11.2 6.5 16 6.5 4.7 0 6.5-1.5 16-6.5zm134.1-256h-86.6l25.4 138.7c-7.8-5.1-16.9-7.8-26.3-7.8-7.9 0-15.7 2-22.6 5.6l-40 21.3-40-21.3c-7-3.7-14.7-5.6-22.6-5.6-9.4 0-18.5 2.7-26.3 7.8L160.5 224H73.9l-32-32 32-32h62.9c11.1 19 31.5 32 55.1 32h64c23.6 0 44-13 55.1-32h63l32 32z"/></svg>
